!!!COM: Johann Sebastian Bach
!!!OPR: Canonic Variations on 'Vom Himmel hoch, da komm ich her'
!!!OTL: Canon alla quinta (Canon No. 2)
!!!SCT: BWV 769b
**kern	**kern	**kern
*CF	*conseq	*guida
*k[]	*k[]	*k[]
*C:	*C:	*C:
*M4/4	*M4/4	*M4/4
=1	=1	=1
1r	2r	8r
.	.	8cc
.	.	8b
.	.	8a
.	8r	8b
.	8f	16a
.	.	16g
.	8e	(16a
.	.	16cc)
.	8d	(16b
.	.	16dd)
=2	=2	=2
1r	8e	8cc
.	16d	16b
.	16c	16a
.	(16d	8b
.	16f)	.
.	(16e	8cc
.	16g)	.
.	8f	8dd
.	16e	16cc
.	16d	16b
.	8e	(16cc
.	.	16ee)
.	8f	(16dd
.	.	16ff)
=3	=3	=3
2r	8g	8ee
.	16f	8dd
.	16e	.
.	(16f#	8ccM
.	16a)	.
.	(16g#	8b
.	16b)	.
[2c	8a	16cc
.	.	16dd
.	8gn	16ee
.	.	16cc
.	8f#m	16aa
.	.	16a
.	8e	16b
.	.	16cc
=4	=4	=4
4c]	16f#	16dd
.	16g	16ee
.	16a	16ff#
.	16f#	16dd
2B	16dd	16gg
.	16d	16ff#
.	16e	16gg
.	16f#	16aa
.	16g	4dd
.	16a	.
.	16b	.
.	16g	.
4A	16cc	8r
.	16b	.
.	16cc	[8ffn
.	16dd	.
=5	=5	=5
2B	4g	16ff]
.	.	16ee
.	.	16dd
.	.	16cc
.	8r	16b
.	.	16a
.	[8b	16g
.	.	16f#
2G	16b]	8g
.	16a	.
.	16g	8b
.	16fn	.
.	16e	8ee
.	16d	.
.	16c	[8gg
.	16B	.
=6	=6	=6
2A	8c	16gg]
.	.	16ff
.	8e	16ee
.	.	16dd
.	8a	16cc
.	.	16ee
.	[8cc	16ff
.	.	16aa
2B	16cc]	16dd
.	16b	16gg
.	16a	16ff
.	16g	16ee
.	16f	16dd
.	16a	16cc
.	16b	16dd
.	16dd	16ff
=7	=7	=7
1c	16g	[4ee
.	16cc	.
.	16b-	.
.	16a	.
.	16g	16ee]
.	16f	16dd
.	16g	16ee
.	16b-	16gg
.	[4a	16cc
.	.	16dd
.	.	16ee
.	.	16cc
.	16a]	16ff
.	16g	16ee
.	16a	16ff
.	16cc	16aa
=8	=8	=8
2r	16f	8dd
.	16g	.
.	16a	8ff
.	16f	.
.	16b	8g
.	16a	.
.	16b	16gg
.	16dd	16ff
2c	8g	16ee
.	.	16ff
.	8b	16dd
.	.	16ff
.	8c	16ee
.	.	16bb
.	16cc	16aa
.	16b	16gg
=9	=9	=9
2c	16a	16ff#
.	16b	16gg
.	16g	16ee
.	16b	16gg
.	16a	16ff#
.	16ee	16gg
.	16dd	[8aa
.	16cc	.
2G	16b	16aa]
.	16cc	16gg
.	16a	16ff#
.	16cc	16ee
.	16b	16dd
.	16cc	16cc
.	[8dd	16b
.	.	16a
=10	=10	=10
2G	16dd]	8g
.	16cc	.
.	16b	8dd
.	16a	.
.	16g	8dd
.	16f	.
.	16e	8g
.	16d	.
2E	8c	16g
.	.	16f
.	8g	16e
.	.	16f
.	8g	16g
.	.	16ee
.	8c	16g
.	.	16f
=11	=11	=11
2G	16c	16e
.	16B	16d
.	16A	16c
.	16B	16d
.	16c	8e
.	16a	.
.	16c	[8ee
.	16B	.
2F	16A	8ee]
.	16G	.
.	16F	16dd
.	16G	16cc
.	8A	16dd
.	.	16ee
.	[8a	16cc
.	.	16dd
=12	=12	=12
1E	8a]	16ee
.	.	16b
.	16g#	[8ee
.	16f#	.
.	16g#	16ee]
.	16a	16ffn
.	16f#	16dd
.	16g#	16ee
.	16a	16cc
.	16e	16b
.	[8a	16a
.	.	16b
.	16a]	16cc#
.	16b-	16dd
.	16gn	16ee
.	16a	16cc#
=13	=13	=13
2r	16f	16dd
.	16e	16ee
.	16d	16ff
.	16e	16ee
.	16f	16dd
.	16g	16ee
.	16a	16cc
.	16f#	16dd
2E	16g	16b
.	16a	16a
.	16b	16g
.	16a	16a
.	16g	16b
.	16a	16cc
.	16fn	16a
.	16g	16b
=14	=14	=14
2A	16e	[2cc
.	16d	.
.	16c	.
.	16d	.
.	16e	.
.	16f	.
.	16d	.
.	16e	.
2A	[2f	16cc]
.	.	16b
.	.	16a
.	.	16g
.	.	16f
.	.	16e
.	.	16d
.	.	16c
=15	=15	=15
2G	16f]	4d
.	16e	.
.	16d	.
.	16c	.
.	16B	8r
.	16A	.
.	16G	[8dd
.	16F#	.
2B	4G	16dd]
.	.	16cc
.	.	16b
.	.	16a
.	8r	16g
.	.	16fn
.	[8g	16e
.	.	16d
=16	=16	=16
2c	16g]	16e
.	16f	16g
.	16e	16a
.	16d	16b
.	16c	8cc
.	16B	.
.	16A	8c
.	16G	.
2A	16A	8r
.	16c	.
.	16d	[8cc
.	16e	.
.	8f	16cc]
.	.	8b
.	8F	.
.	.	16a
=17	=17	=17
1G	8r	8b
.	[8f	16a
.	.	16g
.	16f]	16a
.	8e	16cc
.	.	16b
.	16d	16dd
.	8e	8cc
.	16d	16b
.	16c	16a
.	16d	16b
.	16f	16dd
.	16e	16cc
.	16g	16ee
=18	=18	=18
2r	8f	16dd
.	.	16b
.	16e	16cc
.	16d	16dd
.	16e	8g
.	16g	.
.	16f	8r
.	16a	.
2c	16g	16r
.	16e	16g
.	16f	16a
.	16g	16b
.	8c	16cc
.	.	16dd
.	8r	16ee
.	.	16ff#
=19	=19	=19
2B	16r	16gg
.	16c	16ee
.	16d	16ff#
.	16e	16gg
.	16f#	16aa
.	16g	16bb
.	16a	16aa
.	16b	16gg
2A	16cc	[4ff#
.	16a	.
.	16b	.
.	16cc	.
.	16dd	16ff#]
.	16ee	16gg
.	16dd	16ee
.	16cc	16ff#
=20	=20	=20
2G	[4b	16gg
.	.	16aa
.	.	16gg
.	.	16ffn
.	16b]	8ee
.	16cc	.
.	16a	[8e
.	16b	.
2A	16cc	16e]
.	16dd	16f
.	16cc	16d
.	16b	16e
.	8a	16f
.	.	16g
.	[8A	16a
.	.	16b
=21	=21	=21
(4F	16A]	8cc
.	16B	.
.	16G	8c
.	16A	.
4E)	16B	16r
.	16c	16ee
.	16d	16dd
.	16e	16cc
2D	8f	16b
.	.	16cc
.	8F	16dd
.	.	16ee
.	16r	8ff
.	16a	.
.	16g	8b
.	16f	.
=22	=22	=22
[1C	16e	8cc
.	16f	.
.	16g	8ee
.	16a	.
.	8b-	16g
.	.	16a
.	8e	16b-
.	.	16g
.	8f	16a
.	.	16g
.	8a	16f
.	.	16g
.	16c	16a
.	16d	16bn
.	16e	16cc
.	16c	16a
=23	=23	=23
1C;]	16d	16b
.	16c	16cc
.	16B	16dd
.	16c	16ee
.	16d	16ff
.	16e	16gg
.	16f	16aa
.	16d	16bb
.	2e;	2ccc;
==	==	==
*-	*-	*-
!!!CDT: 1685/3//-1750/7/28
!!!OCY: Deutschland
!!!ODT: ?1736
!!!AFR: chorale variations
!!!AST: polyphony
!!!AMT: simple quadruple
!!!SCA: Bach-Werke-Verzeichnis
!!!AIN: organ
!!!YEP: David Huron and Denis Collins
!!!YEN: Canada
!!!EEV: 1.0
!!!RDT: 1995 April 29
!!!YED: 1995 August 31
